packages/foundations/assets/icons/functional/images/buildings/house_28.svg

<svg width="28" height="28" viewBox="0 0 28 28" fill="none" xmlns="http://www.w3.org/2000/svg">
<g clip-path="url(#clip0_184_189)">
<path fill-rule="evenodd" clip-rule="evenodd" d="M13.9987 3.06254C14.6007 3.06254 15.2557 3.25454 15.7217 3.71854L25.1277 13.9725C25.209 14.0558 25.2717 14.1553 25.3117 14.2645C25.3658 14.398 25.3864 14.5427 25.3716 14.686C25.3568 14.8293 25.3072 14.9667 25.2269 15.0863C25.1467 15.2059 25.0383 15.3041 24.9114 15.3721C24.7844 15.4401 24.6428 15.476 24.4987 15.4765C24.3077 15.4765 24.0607 15.3945 23.9517 15.2855L22.7487 14.0825V24.0625C22.7487 24.5145 22.4207 24.9375 21.9827 24.9375H16.6237C16.1857 24.9375 15.7757 24.6095 15.7757 24.1715V18.8125H12.2487V24.0625C12.2487 24.5145 11.8937 24.9375 11.4557 24.9375H6.12373C5.68573 24.9375 5.24873 24.6095 5.24873 24.1715V14.0825L4.12773 15.2045C4.04674 15.2901 3.94926 15.3585 3.84115 15.4054C3.73305 15.4523 3.61657 15.4768 3.49873 15.4775C3.26221 15.4688 3.03766 15.3713 2.86973 15.2045C2.79118 15.1253 2.72902 15.0313 2.6868 14.928C2.64459 14.8247 2.62316 14.7141 2.62373 14.6025C2.62373 14.4115 2.67873 14.1925 2.81473 14.0555L12.1397 3.82954C12.3825 3.58375 12.6721 3.38921 12.9914 3.25746C13.3108 3.12571 13.6533 3.05943 13.9987 3.06254ZM13.9987 4.81254C13.8077 4.81254 13.5887 4.86754 13.4517 5.00354L6.99873 12.3325V23.1875H10.4987V17.9375C10.4987 17.4725 10.8267 17.0625 11.2647 17.0625H16.6237C17.0887 17.0625 17.4987 17.3905 17.4987 17.8285V23.1875H20.9987V12.3325L14.6277 5.05854C14.4573 4.89898 14.2322 4.81092 13.9987 4.81254Z" fill="#1A1C1F"/>
</g>
<defs>
<clipPath id="clip0_184_189">
<rect width="28" height="28" fill="white"/>
</clipPath>
</defs>
</svg>

<svg xmlns="http://www.w3.org/2000/svg" width="28" height="28" fill="none"><g clip-path="url(#a)"><path fill="#1A1C1F" fill-rule="evenodd" d="M13.999 3.063c.602 0 1.257.192 1.723.656l9.406 10.253a.8.8 0 0 1 .184.293.88.88 0 0 1-.813 1.211c-.191 0-.438-.082-.547-.19l-1.203-1.203v9.98c0 .452-.328.875-.766.875h-5.36c-.437 0-.847-.328-.847-.766v-5.36h-3.527v5.25c0 .453-.355.875-.793.875H6.124c-.438 0-.875-.328-.875-.765v-10.09l-1.121 1.122a.87.87 0 0 1-.63.273.94.94 0 0 1-.628-.273.85.85 0 0 1-.246-.602c0-.19.055-.41.19-.546L12.14 3.83a2.58 2.58 0 0 1 1.859-.767m0 1.75c-.191 0-.41.055-.547.19l-6.453 7.33v10.855h3.5v-5.25c0-.465.328-.875.766-.875h5.359c.465 0 .875.328.875.765v5.36h3.5V12.333l-6.371-7.274a.9.9 0 0 0-.63-.246" clip-rule="evenodd"/></g><defs><clipPath id="a"><path fill="#fff" d="M0 0h28v28H0z"/></clipPath></defs></svg>
